X: 4817
T:The Gates of Mullagh
M:4/4
L:1/8
C:Josephine Keegan
S:Brid Harper
R:Reel
K:D
Ac|dD (3DDD) ADFA| gfed cded| BE ~E2 gfed|cdec Agfe|!
dDFA BcdB| gfed cdeg| fg (3agf) gfed|1ceag fd dc:|2ceag fd df||!
afdf afba| gece gfga| fdAd fgaf| gece abga|!
fgef dAFA| BG (3GAG) EFGE| FA (3ABA) GEed| cAGE ED D2:|!
